X: 7
T: Miss Sarah Drummond Of Perth
R: strathspey
M: 4/4
L: 1/8
K: Ador
a | A<A e>d B<d e2 | d<g B<g d<g B<G | A<A e>d B<d e<g | a>egB A2 A :|
g | a<a e<a c<a e2 | g<g d<g Bg d2 | a<a e<a c<a e<g | a<e g<B A2 A |
g | a<a e<a c<a e2 | g<g d<g Bg d2 | a<a e<a g<b e<g | a<e g<B A2 A |]


Tune 1556	Setting 21192

